X: 1009
T: The Scots Bonnet
P: Bonnets o' Blue
C:Ross's Coll. of Pipe Music
R:Jig (8x32)
B:RSCDS 10-9
Z:Anselm Lingnau <anselm@strathspey.org>
M:6/8
L:1/8
K:D
A|"D"ded fga|"A"ABA ABc|"G"d2 b "D"afd|"E7"e3-"A"e2 A|
  "D"ded fga|"A"ABA "D"Afg|agf "A7"ede|"D"[d3F3]-[d2F2]:|
|:e/d/|"A"cde efe|A3 A2 e/d/|cde ef=g|"D"a3 a2 g|
  "D"fed "A"cBc|"D"d2e f2g|1 "A"agf "F#m"edc|"Bm" B3 B2:|2 \
                             "A"agf "A7"ede|"D"d3 d2|]
%%center Book10/1009-Scots_Bonnet-AL.abc

%%sep 1 1 500
%%sep 1 1 500

